web/public/images/3p-logos/typescript.svg

<svg width="54" height="48" viewBox="0 0 54 48" fill="none" xmlns="http://www.w3.org/2000/svg">
<path d="M3 24V48H27H51V24V0H27H3V24Z" fill="#007ACC"/>
<path d="M13.6146 24.1592L13.5994 26.1249L16.7232 26.1249H19.847V35.0011V43.8773H22.0565H24.2661V35.0011V26.1249H27.3899H30.5137V24.1973C30.5137 23.1307 30.4908 22.2392 30.4603 22.2164C30.4375 22.1859 26.6356 22.1707 22.0261 22.1783L13.6375 22.2011L13.6146 24.1592Z" fill="white"/>
<path d="M41.7315 22.1453C42.9505 22.4501 43.88 22.991 44.7334 23.8748C45.1753 24.3472 45.8305 25.2082 45.8838 25.4139C45.8991 25.4748 43.8115 26.8767 42.5467 27.6615C42.501 27.692 42.3181 27.4939 42.1124 27.1891C41.4953 26.2901 40.8477 25.9015 39.8572 25.8329C38.4019 25.7339 37.4648 26.4958 37.4724 27.7682C37.4724 28.1415 37.5258 28.3625 37.6781 28.6672C37.9981 29.3301 38.5924 29.7263 40.4591 30.5339C43.8953 32.012 45.3658 32.9872 46.28 34.3739C47.301 35.9206 47.5296 38.3891 46.8362 40.2253C46.0743 42.2215 44.1848 43.5777 41.5258 44.0272C40.7029 44.172 38.7524 44.1491 37.8686 43.9891C35.941 43.6463 34.1124 42.6939 32.9848 41.4444C32.5429 40.9567 31.6819 39.6844 31.7353 39.5929C31.7581 39.5625 31.9562 39.4406 32.1772 39.311C32.3905 39.1891 33.1981 38.7244 33.96 38.2825L35.3391 37.4825L35.6286 37.9091C36.0324 38.5263 36.9162 39.372 37.4496 39.6539C38.981 40.4615 41.0838 40.3472 42.12 39.4177C42.5619 39.0139 42.7448 38.5948 42.7448 37.9777C42.7448 37.4215 42.6762 37.1777 42.3867 36.7586C42.0134 36.2253 41.2515 35.7758 39.0877 34.8386C36.6115 33.772 35.5448 33.1091 34.5696 32.0577C34.0058 31.4482 33.4724 30.4729 33.2515 29.6577C33.0686 28.9796 33.0229 27.2806 33.1677 26.5948C33.6781 24.2025 35.4838 22.5339 38.0896 22.0386C38.9353 21.8786 40.901 21.9396 41.7315 22.1453Z" fill="white"/>
</svg>

<svg fill="none" height="48" width="54" xmlns="http://www.w3.org/2000/svg"><path d="M3 24v24h48V0H3z" fill="#007acc"/><g fill="#fff"><path d="m13.615 24.16-.016 1.965h6.248v17.752h4.42V26.125h6.247v-1.928c0-1.066-.023-1.958-.054-1.98-.023-.031-3.824-.046-8.434-.039l-8.389.023zM41.731 22.145c1.22.305 2.149.846 3.002 1.73.442.472 1.097 1.333 1.15 1.539.016.06-2.072 1.463-3.336 2.248-.046.03-.229-.168-.435-.473-.617-.899-1.264-1.288-2.255-1.356-1.455-.1-2.392.663-2.385 1.935 0 .373.054.594.206.9.32.662.914 1.058 2.781 1.866 3.436 1.478 4.907 2.453 5.821 3.84 1.021 1.547 1.25 4.015.556 5.851-.762 1.997-2.651 3.353-5.31 3.802-.823.145-2.774.122-3.657-.038-1.928-.343-3.757-1.295-4.884-2.545-.442-.487-1.303-1.76-1.25-1.851.023-.03.221-.152.442-.282.213-.122 1.021-.587 1.783-1.028l1.38-.8.289.426c.403.617 1.287 1.463 1.82 1.745 1.532.808 3.635.693 4.671-.236.442-.404.625-.823.625-1.44 0-.556-.069-.8-.358-1.22-.374-.533-1.136-.982-3.3-1.92-2.476-1.066-3.542-1.729-4.517-2.78-.564-.61-1.098-1.585-1.319-2.4-.182-.678-.228-2.377-.083-3.063.51-2.392 2.316-4.061 4.922-4.556.845-.16 2.811-.1 3.641.106z"/></g></svg>
